neru-light-classic/32x32/apps/colorhug-ccmx.svg

<svg xmlns="http://www.w3.org/2000/svg" height="32" width="32" version="1"><rect width="28.203" height="28.203" x="1.898" y="1.898" ry="5.575" fill="#4f4f4f" fill-rule="evenodd"/><path d="M21.953 14.08l-.053.088a8 8 0 0 1 .2 1.732 8 8 0 0 1-.11 1.272A3 3 0 0 1 24 20a3 3 0 0 1-3 3 3 3 0 0 1-2.008-.777 8 8 0 0 1-2.758 1.388l-.007.012A6 6 0 0 0 21 26a6 6 0 0 0 6-6 6 6 0 0 0-5.047-5.92zM10.016 14.09A6 6 0 0 0 5 20a6 6 0 0 0 6 6 6 6 0 0 0 4.773-2.371 8 8 0 0 1-2.808-1.369A3 3 0 0 1 11 23a3 3 0 0 1-3-3 3 3 0 0 1 1.91-2.795A8 8 0 0 1 9.8 15.9a8 8 0 0 1 .216-1.81zM16 6a6 6 0 0 0-6 6 6 6 0 0 0 .338 1.957 8 8 0 0 1 2.672-1.771A3 3 0 0 1 13 12a3 3 0 0 1 3-3 3 3 0 0 1 3 3 3 3 0 0 1-.01.188 8 8 0 0 1 2.674 1.767A6 6 0 0 0 22 12a6 6 0 0 0-6-6z" fill="#999"/><circle cy="12" cx="16" r="2" fill="#a5e98c"/><circle cy="20" cx="11" r="2" fill="#eb9595"/><circle cy="20" cx="21" r="2" fill="#8ccde4"/></svg>

<?xml version="1.0" encoding="UTF-8" standalone="no"?>
<svg
   xmlns:dc="http://purl.org/dc/elements/1.1/"
   xmlns:cc="http://creativecommons.org/ns#"
   xmlns:rdf="http://www.w3.org/1999/02/22-rdf-syntax-ns#"
   xmlns:svg="http://www.w3.org/2000/svg"
   xmlns="http://www.w3.org/2000/svg"
   xmlns:sodipodi="http://sodipodi.sourceforge.net/DTD/sodipodi-0.dtd"
   xmlns:inkscape="http://www.inkscape.org/namespaces/inkscape"
   height="32"
   width="32"
   version="1"
   id="svg34"
   sodipodi:docname="colorhug-ccmx.svg"
   inkscape:version="0.92.1 r">
  <metadata
     id="metadata40">
    <rdf:RDF>
      <cc:Work
         rdf:about="">
        <dc:format>image/svg+xml</dc:format>
        <dc:type
           rdf:resource="http://purl.org/dc/dcmitype/StillImage" />
      </cc:Work>
    </rdf:RDF>
  </metadata>
  <defs
     id="defs38" />
  <sodipodi:namedview
     pagecolor="#ffffff"
     bordercolor="#666666"
     borderopacity="1"
     objecttolerance="10"
     gridtolerance="10"
     guidetolerance="10"
     inkscape:pageopacity="0"
     inkscape:pageshadow="2"
     inkscape:window-width="640"
     inkscape:window-height="480"
     id="namedview36"
     showgrid="false"
     inkscape:zoom="9.5"
     inkscape:cx="-2.3157895"
     inkscape:cy="15.263158"
     inkscape:current-layer="svg34" />
  <rect
     style="opacity:1;fill:#4f4f4f;fill-opacity:1;fill-rule:evenodd;stroke:none;stroke-width:1.03534329;stroke-linecap:round;stroke-linejoin:bevel;stroke-miterlimit:4;stroke-dasharray:none;stroke-dashoffset:0;stroke-opacity:1"
     id="rect4497-3"
     width="28.203388"
     height="28.203388"
     x="1.8983059"
     y="1.8983059"
     ry="5.575182"
     inkscape:export-filename="/home/ramil/3.png"
     inkscape:export-xdpi="71"
     inkscape:export-ydpi="71" />
  <path
     d="M 21.953,14.08 21.9,14.168 A 8,8 0 0 1 22.1,15.9 8,8 0 0 1 21.99,17.172 3,3 0 0 1 24,20 a 3,3 0 0 1 -3,3 3,3 0 0 1 -2.008,-0.777 8,8 0 0 1 -2.758,1.388 l -0.007,0.012 A 6,6 0 0 0 21,26 6,6 0 0 0 27,20 6,6 0 0 0 21.953,14.08 Z"
     id="path22"
     inkscape:connector-curvature="0"
     style="fill:#999999;fill-opacity:1" />
  <path
     d="M 10.016,14.09 A 6,6 0 0 0 5,20 6,6 0 0 0 11,26 6,6 0 0 0 15.773,23.629 8,8 0 0 1 12.965,22.26 3,3 0 0 1 11,23 3,3 0 0 1 8,20 3,3 0 0 1 9.9102,17.205 8,8 0 0 1 9.8008,15.9 8,8 0 0 1 10.016,14.09 Z"
     id="path24"
     inkscape:connector-curvature="0"
     style="fill:#999999;fill-opacity:1" />
  <path
     d="m 16,6 a 6,6 0 0 0 -6,6 6,6 0 0 0 0.338,1.957 A 8,8 0 0 1 13.01,12.186 3,3 0 0 1 13,12 a 3,3 0 0 1 3,-3 3,3 0 0 1 3,3 3,3 0 0 1 -0.01,0.188 8,8 0 0 1 2.674,1.767 A 6,6 0 0 0 22,12 6,6 0 0 0 16,6 Z"
     id="path26"
     inkscape:connector-curvature="0"
     style="fill:#999999;fill-opacity:1" />
  <circle
     cy="12"
     cx="16"
     r="2"
     id="circle28"
     style="fill:#a5e98c" />
  <circle
     cy="20"
     cx="11.000001"
     r="2"
     id="circle30"
     style="fill:#eb9595" />
  <circle
     cy="20"
     cx="21"
     r="2"
     id="circle32"
     style="fill:#8ccde4" />
</svg>
